src/images/logo.svg

<svg width="240" height="74" viewBox="0 0 240 74" fill="none" xmlns="http://www.w3.org/2000/svg">
<path fill-rule="evenodd" clip-rule="evenodd" d="M105.488 22.7864C103.168 22.7864 100.414 23.2783 97.4059 26.7662V17.0051C97.4059 14.5392 95.4046 12.5333 92.9443 12.5333C90.484 12.5333 88.4827 14.5392 88.4827 17.0051V48.8375C88.4827 51.3033 90.484 53.3092 92.9443 53.3092C95.4046 53.3092 97.4059 51.3033 97.4059 48.8375V36.4827C97.4059 32.9309 99.0886 30.9697 102.154 30.9697C105.156 30.9697 106.737 32.8734 106.737 36.4827V48.8375C106.737 51.3033 108.738 53.3092 111.199 53.3092C113.659 53.3092 115.66 51.3033 115.66 48.8375V33.8891C115.654 26.9387 111.855 22.7864 105.488 22.7864ZM131.111 23.0037C127.478 23.0037 124.597 23.4764 121.773 24.5369C120.307 25.0863 119.326 26.5044 119.326 28.0632C119.326 30.1457 120.977 31.7747 123.086 31.7747C123.52 31.7747 123.883 31.7108 124.38 31.5447C126.095 31.0081 127.905 30.7526 129.925 30.7526C134.718 30.7526 135.738 33.4037 135.751 35.646C134.087 35.103 131.99 34.6047 129.065 34.6047C121.442 34.6047 117.069 38.099 117.069 44.1998V44.3084C117.069 49.8214 121.2 53.5266 127.344 53.5266C130.805 53.5266 133.578 52.4725 135.789 50.3133C136.165 51.8912 137.676 53.3157 139.996 53.3157C142.437 53.3157 144.349 51.4248 144.349 49.0101V35.8312C144.349 31.6853 143.266 28.4912 141.118 26.3447C138.9 24.128 135.534 23.0037 131.111 23.0037ZM129.817 47.1192C127.287 47.1192 125.719 45.9182 125.719 43.9826V43.874C125.719 41.5678 127.644 40.2519 131.003 40.2519C132.723 40.2519 134.438 40.5904 135.859 41.2037V42.4238C135.859 45.1836 133.374 47.1192 129.817 47.1192ZM156.306 26.8433C158.613 24.1155 161.456 22.7867 164.974 22.7867C171.686 22.7867 178.474 28.0442 178.474 38.0993V38.2079C178.474 42.8393 177.053 46.7617 174.369 49.5597C171.915 52.1214 168.582 53.5268 164.974 53.5268C161.501 53.5268 158.741 52.3386 156.351 49.8089V57.4747C156.351 59.9405 154.349 61.9464 151.889 61.9464C149.429 61.9464 147.427 59.9405 147.427 57.4747V27.4757C147.427 25.0098 149.429 23.0039 151.889 23.0039C154.139 23.0039 156 24.6777 156.306 26.8433ZM169.557 38.0993C169.557 33.7617 166.683 30.4845 162.871 30.4845C159.034 30.4845 156.242 33.685 156.242 38.0993V38.2079C156.242 42.6221 159.028 45.8226 162.871 45.8226C166.746 45.8226 169.557 42.6221 169.557 38.2079V38.0993ZM198.08 22.7867C194.561 22.7867 191.719 24.1155 189.411 26.8433C189.105 24.6777 187.244 23.0039 184.994 23.0039C182.534 23.0039 180.533 25.0098 180.533 27.4757V57.4747C180.533 59.9405 182.534 61.9464 184.994 61.9464C187.455 61.9464 189.456 59.9405 189.456 57.4747V49.8089C191.846 52.3386 194.606 53.5268 198.08 53.5268C201.687 53.5268 205.021 52.1214 207.475 49.5597C210.158 46.7617 211.579 42.8393 211.579 38.2079V38.0993C211.579 28.0442 204.791 22.7867 198.08 22.7867ZM195.976 30.4845C199.788 30.4845 202.662 33.7617 202.662 38.0993V38.2079C202.662 42.6221 199.852 45.8226 195.976 45.8226C192.133 45.8226 189.348 42.6221 189.348 38.2079V38.0993C189.348 33.685 192.139 30.4845 195.976 30.4845ZM231.485 26.3768C232.313 24.1664 233.792 23.0038 235.761 23.0038C238.139 23.0038 240.006 24.8244 240 27.137C240 27.8077 239.783 28.7787 239.592 29.2259L229.528 53.45C226.998 59.589 224.359 61.7674 219.445 61.7674C217.711 61.7674 216.379 61.5374 214.849 60.9881C213.797 60.6048 212.026 59.6082 212.026 57.2446C212.026 54.9193 213.855 53.533 215.62 53.533C216.321 53.533 216.742 53.6544 217.08 53.7694C217.775 53.9866 218.157 54.076 218.686 54.076C220.025 54.076 220.586 53.8588 221.261 52.562L221.465 52.0765L211.675 29.3409C211.452 28.7787 211.216 27.9099 211.216 27.303C211.216 24.85 213.109 22.9974 215.62 22.9974C217.692 22.9974 219.094 24.0834 219.897 26.3193L225.793 42.2067L231.485 26.3768Z" fill="white"/>
<path d="M63.9739 18.7786V44.9078C63.9739 55.2784 55.5339 63.6863 45.1237 63.6863H43.217L33.4805 73.3795C33.0992 73.7594 32.5717 74 31.987 74C31.4467 74 30.9574 73.8037 30.5824 73.4745L30.4172 73.3099L30.4108 73.3036L20.7569 63.6863H18.8439C8.44003 63.6863 0 55.2784 0 44.9078V18.7786C0 8.40794 8.44003 0 18.8503 0H45.1237C55.5339 0 63.9739 8.40794 63.9739 18.7786Z" fill="#FFD666"/>
<path d="M14.895 36.197C13.0392 36.197 11.9814 38.3036 13.0582 39.8248C17.2449 45.7501 24.1677 49.6133 31.99 49.6133C39.8123 49.6133 46.7289 45.7437 50.9155 39.8248C51.9923 38.3036 50.9345 36.197 49.0787 36.197H14.895Z" fill="white"/>
<path d="M25.764 27.2298H14.5658V21.6036C14.5658 18.4977 17.074 15.9774 20.1649 15.9774C23.2558 15.9774 25.764 18.4977 25.764 21.6036V27.2298Z" fill="white"/>
<path d="M49.4148 27.2298H38.2166V21.6036C38.2166 18.4977 40.7248 15.9774 43.8157 15.9774C46.9066 15.9774 49.4148 18.4977 49.4148 21.6036V27.2298Z" fill="white"/>
</svg>

<svg xmlns="http://www.w3.org/2000/svg" width="240" height="74" fill="none" viewBox="0 0 240 74">
  <path fill="#fff" fill-rule="evenodd" d="M105.488 22.786c-2.32 0-5.074.492-8.082 3.98v-9.76a4.472 4.472 0 00-4.462-4.473 4.472 4.472 0 00-4.461 4.472v31.832a4.472 4.472 0 004.461 4.472 4.472 4.472 0 004.462-4.471V36.483c0-3.552 1.683-5.513 4.748-5.513 3.002 0 4.583 1.903 4.583 5.513v12.355a4.471 4.471 0 004.462 4.471 4.471 4.471 0 004.461-4.471V33.889c-.006-6.95-3.805-11.103-10.172-11.103zm25.623.218c-3.633 0-6.514.472-9.338 1.533a3.784 3.784 0 00-2.447 3.526c0 2.083 1.651 3.712 3.76 3.712.434 0 .797-.064 1.294-.23 1.715-.537 3.525-.792 5.545-.792 4.793 0 5.813 2.65 5.826 4.893-1.664-.543-3.761-1.041-6.686-1.041-7.623 0-11.996 3.494-11.996 9.595v.108c0 5.513 4.131 9.219 10.275 9.219 3.461 0 6.234-1.055 8.445-3.214.376 1.578 1.887 3.003 4.207 3.003 2.441 0 4.353-1.891 4.353-4.306V35.831c0-4.146-1.083-7.34-3.231-9.486-2.218-2.217-5.584-3.341-10.007-3.341zm-1.294 24.115c-2.53 0-4.098-1.2-4.098-3.136v-.109c0-2.306 1.925-3.622 5.284-3.622 1.72 0 3.435.338 4.856.952v1.22c0 2.76-2.485 4.695-6.042 4.695zm26.489-20.276c2.307-2.727 5.15-4.056 8.668-4.056 6.712 0 13.5 5.257 13.5 15.312v.109c0 4.631-1.421 8.554-4.105 11.352-2.454 2.561-5.787 3.967-9.395 3.967-3.473 0-6.233-1.188-8.623-3.718v7.666a4.472 4.472 0 01-4.462 4.471 4.472 4.472 0 01-4.462-4.471v-30a4.472 4.472 0 014.462-4.471 4.47 4.47 0 014.417 3.84zM169.557 38.1c0-4.337-2.874-7.614-6.686-7.614-3.837 0-6.629 3.2-6.629 7.614v.109c0 4.414 2.786 7.615 6.629 7.615 3.875 0 6.686-3.2 6.686-7.615v-.109zm28.523-15.312c-3.519 0-6.361 1.329-8.669 4.056a4.47 4.47 0 00-4.417-3.84 4.471 4.471 0 00-4.461 4.473v29.999a4.471 4.471 0 004.461 4.471 4.471 4.471 0 004.462-4.471v-7.666c2.39 2.53 5.15 3.718 8.624 3.718 3.607 0 6.941-1.406 9.395-3.967 2.683-2.798 4.104-6.72 4.104-11.352v-.109c0-10.055-6.788-15.312-13.499-15.312zm-2.104 7.698c3.812 0 6.686 3.277 6.686 7.614v.109c0 4.414-2.81 7.615-6.686 7.615-3.843 0-6.628-3.2-6.628-7.615v-.109c0-4.414 2.791-7.614 6.628-7.614zm35.509-4.108c.828-2.21 2.307-3.373 4.276-3.373 2.378 0 4.245 1.82 4.239 4.133 0 .67-.217 1.642-.408 2.089L229.528 53.45c-2.53 6.139-5.169 8.317-10.083 8.317-1.734 0-3.066-.23-4.596-.779-1.052-.383-2.823-1.38-2.823-3.743 0-2.326 1.829-3.712 3.594-3.712.701 0 1.122.121 1.46.236.695.218 1.077.307 1.606.307 1.339 0 1.9-.217 2.575-1.514l.204-.485-9.79-22.736c-.223-.562-.459-1.431-.459-2.038 0-2.453 1.893-4.306 4.404-4.306 2.072 0 3.474 1.086 4.277 3.322l5.896 15.888 5.692-15.83z" clip-rule="evenodd"/>
  <path fill="#FFD666" d="M63.974 18.779v26.129c0 10.37-8.44 18.778-18.85 18.778h-1.907l-9.736 9.693c-.382.38-.91.621-1.494.621-.54 0-1.03-.196-1.405-.525l-.165-.165-.006-.006-9.654-9.618h-1.913C8.44 63.686 0 55.278 0 44.908v-26.13C0 8.409 8.44 0 18.85 0h26.274c10.41 0 18.85 8.408 18.85 18.779z"/>
  <path fill="#fff" d="M14.895 36.197c-1.856 0-2.914 2.107-1.837 3.628a23.132 23.132 0 0018.932 9.788c7.822 0 14.739-3.87 18.926-9.788 1.076-1.521.019-3.628-1.837-3.628H14.895zM25.764 27.23H14.566v-5.626c0-3.106 2.508-5.627 5.599-5.627 3.09 0 5.599 2.52 5.599 5.627v5.626zM49.415 27.23H38.217v-5.626c0-3.106 2.508-5.627 5.599-5.627 3.09 0 5.599 2.52 5.599 5.627v5.626z"/>
</svg>
